src/assets/meal.svg

<?xml version="1.0" encoding="UTF-8"?>
<svg xmlns="http://www.w3.org/2000/svg" xmlns:xlink="http://www.w3.org/1999/xlink" viewBox="0 0 48 48" width="48px" height="48px">
<defs>
<filter id="alpha" filterUnits="objectBoundingBox" x="0%" y="0%" width="100%" height="100%">
  <feColorMatrix type="matrix" in="SourceGraphic" values="0 0 0 0 1 0 0 0 0 1 0 0 0 0 1 0 0 0 1 0"/>
</filter>
<mask id="mask0">
  <g filter="url(#alpha)">
<rect x="0" y="0" width="48" height="48" style="fill:rgb(0%,0%,0%);fill-opacity:0.05;stroke:none;"/>
  </g>
</mask>
<image id="image79044416" width="48" height="48" xlink:href="data:image/png;base64,iVBORw0KGgoAAAANSUhEUgAAADAAAAAwCAYAAABXAvmHAAAABmJLR0QA/wD/AP+gvaeTAAAClElEQVRoge3Zy29NURTH8U9pGCgTESM1QFttQuIRr5ogQfgDMBVESvD3YIb4D8RrJN5hgKhXiHdFZ5dgxGCdph73tM65+9zeJvc7usk++7fXOnvdfdZamzZt2kxrOhJqrcQWbEAvFqErG/uCN3iGm7iKBykWbdSBLhzEfszCRVzHE7xGLXtuHrrRh0Fsxw+cwknhYFPpxHF8whnx1ouyEWczjWOZZlPowX1cwLIEer1i5+4l0puQ3RgRIZOaA2I3dlWgDfbhPVZVtQDWZGvsTS28OxPuTS1ch95srZ2pBHtE2FT55v9mTbbm0kaFOsUftoqYn4xDuIuZjYgcF6fNVHEZR8tO7hKnQuVH2wT0iVCak/fARNtzBN/E13KqGMVqLMStopMfYn1qi0qwCY+KTlqJ5+ltKUUHXmKg3uCMnElbxee9FfiJS9hWbzDPgfUiq2wVrslJGPMc6MNwZeYU54mCWcAo5ldjSykW4HORCT9EgdIqzMb3egN5ITRtyHOghrnNNGQS5hkvT/8gz4EPoihvFbrxrt5AngPD6K/MnOIsFyfRP+Q5cFt8wluFQdGO+W9W4IW0faOydOCVEhHxULl2SWoGlUjm4ITo20w150XfqDBjBU0zCvk8+vHRBAXNZBwztVnpVQw1ItApOmYHkphTjMO4o8GinqiJP4lWR7NYJ2rhJakEd2leY6tPZAI7UgvvFU6sTS38G+uE8XuqWmCn2NpDFWgfFqGa/M3/zVLRMbsstrtR+sVpc0fCmJ+MmaJjNoJzIm8qknZ0iC/s+UxjSMnTptFcZ444Yvdnvy+JAnzYv1dMi8WObRZXTDWcFo2zr2UNSJmsDYjWx9glX7fxS74a3uIpbuAKHidcu02bNtOVXyGWdDx0vjeIAAAAAElFTkSuQmCC"/>
<mask id="mask1">
  <g filter="url(#alpha)">
<rect x="0" y="0" width="48" height="48" style="fill:rgb(0%,0%,0%);fill-opacity:0.07;stroke:none;"/>
  </g>
</mask>
<image id="image79044419" width="48" height="48" xlink:href="data:image/png;base64,iVBORw0KGgoAAAANSUhEUgAAADAAAAAwCAYAAABXAvmHAAAABmJLR0QA/wD/AP+gvaeTAAACkElEQVRoge3ZyWoUURTG8V8nHTdqFi4dEYe0wZXEJA57EfMOEgkIIvgKGkTBCd9AfAYRxAdQEXElJMYsHLISBIkogkNcnMZAuqvS1XUrA/QfatNVfe45Veee+91z6dGjx6amltheHw5hGLuwtfn7dyxgBnNYSjVgigAGcBaj+IPZ5vUB35rPDGIvGs2rHy/wBL/LDF4mgAFcwD48wvOC/z+JCbzHA/wq4UthTuGuSJeyDOEeTiSwtSo1XMH5CmxP4nIFdv/Tj+s4VuEYI5hujpWUmnB+KLXhNgyJIJJyRbVvfiUjOkynvg6eOYWveF3Go4K8wg+MlzVUx+3S7nTPLVGuu+aiNKWyWxqYynsgL4UGxCL1LqVHBZnFAZEJbckrVxMi7xcSO1WUnzgq40XmfYFRoVfWm2dyVumsAGpKiqyELDWvtrotK4UaYg68qcipouwUqfRl5Y2sL9AQ2n2jMCtDBWQFsBufKnOnOB/FfqKFrAAGLW9GNgKLwqcWOpESG5qsABaxfS0dWYVB4VMLWQEsYE9l7hRnr5gHLWQFMCM6CxuFI6IStZAVwJy12bx0ymHMt7uRFcCSWORS9426oSb8bNtLyhNzW7HD+ou50/isC1Vcx43k7hTnphw5nbcO/BZNp/WcC8Mi97sWlnXcSeZOce4ruaUktPhkeV8KMyX2JLl0IiWeY5todawVY9iClymNTlub+dDAtSoM94sgjldhvMkYrqpYZF4WbfXUTOFSBXbbMi7a640EtoZFe33VCduOMlKhLqrTfjwW3YNOj45qomV5TtT5h7qs9Sm0Th1nRLn9i7dCza48YtonvtiQyPFneGodj5iy7B0U8ne35U3RN8uHfPMSHvL16NFjk/MPfH1jkbcDIfsAAAAASUVORK5CYII="/>
<linearGradient id="linear0" gradientUnits="userSpaceOnUse" x1="31.35" y1="15.381" x2="29.527" y2="21.087" gradientTransform="matrix(0.999999,0,0,0.999999,0,0)">
<stop offset="0" style="stop-color:rgb(94.509804%,39.215687%,43.137255%);stop-opacity:1;"/>
<stop offset="0.443" style="stop-color:rgb(94.509804%,39.215687%,43.137255%);stop-opacity:1;"/>
<stop offset="1" style="stop-color:rgb(100%,29.411766%,34.901962%);stop-opacity:1;"/>
</linearGradient>
<linearGradient id="linear1" gradientUnits="userSpaceOnUse" x1="27.5" y1="13.529" x2="27.5" y2="25.635" gradientTransform="matrix(0.999999,0,0,0.999999,0,0)">
<stop offset="0" style="stop-color:rgb(63.921571%,30.980393%,15.294118%);stop-opacity:1;"/>
<stop offset="0.587" style="stop-color:rgb(54.509807%,21.960784%,9.019608%);stop-opacity:1;"/>
<stop offset="1" style="stop-color:rgb(50.196081%,17.647059%,6.27451%);stop-opacity:1;"/>
</linearGradient>
<linearGradient id="linear2" gradientUnits="userSpaceOnUse" x1="35.173" y1="14.665" x2="30.702" y2="23.959" gradientTransform="matrix(0.999999,0,0,0.999999,0,0)">
<stop offset="0" style="stop-color:rgb(63.921571%,30.980393%,15.294118%);stop-opacity:1;"/>
<stop offset="0.587" style="stop-color:rgb(54.509807%,21.960784%,9.019608%);stop-opacity:1;"/>
<stop offset="1" style="stop-color:rgb(50.196081%,17.647059%,6.27451%);stop-opacity:1;"/>
</linearGradient>
<linearGradient id="linear3" gradientUnits="userSpaceOnUse" x1="12.663" y1="30.955" x2="19.252001" y2="26.072001" gradientTransform="matrix(0.999999,0,0,0.999999,0,0)">
<stop offset="0" style="stop-color:rgb(94.509804%,39.215687%,43.137255%);stop-opacity:1;"/>
<stop offset="0.443" style="stop-color:rgb(94.509804%,39.215687%,43.137255%);stop-opacity:1;"/>
<stop offset="1" style="stop-color:rgb(100%,29.411766%,34.901962%);stop-opacity:1;"/>
</linearGradient>
<linearGradient id="linear4" gradientUnits="userSpaceOnUse" x1="12.668" y1="35.800999" x2="22.372999" y2="25.683001" gradientTransform="matrix(0.999999,0,0,0.999999,0,0)">
<stop offset="0" style="stop-color:rgb(63.921571%,30.980393%,15.294118%);stop-opacity:1;"/>
<stop offset="0.587" style="stop-color:rgb(54.509807%,21.960784%,9.019608%);stop-opacity:1;"/>
<stop offset="1" style="stop-color:rgb(50.196081%,17.647059%,6.27451%);stop-opacity:1;"/>
</linearGradient>
<linearGradient id="linear5" gradientUnits="userSpaceOnUse" x1="7.72" y1="28.545" x2="21.542999" y2="23.368999" gradientTransform="matrix(0.999999,0,0,0.999999,0,0)">
<stop offset="0" style="stop-color:rgb(63.921571%,30.980393%,15.294118%);stop-opacity:1;"/>
<stop offset="0.587" style="stop-color:rgb(54.509807%,21.960784%,9.019608%);stop-opacity:1;"/>
<stop offset="1" style="stop-color:rgb(50.196081%,17.647059%,6.27451%);stop-opacity:1;"/>
</linearGradient>
<linearGradient id="linear6" gradientUnits="userSpaceOnUse" x1="31" y1="25.690001" x2="31" y2="39.990002" gradientTransform="matrix(0.999999,0,0,0.999999,0,0)">
<stop offset="0" style="stop-color:rgb(94.509804%,39.215687%,43.137255%);stop-opacity:1;"/>
<stop offset="0.443" style="stop-color:rgb(94.509804%,39.215687%,43.137255%);stop-opacity:1;"/>
<stop offset="1" style="stop-color:rgb(100%,29.411766%,34.901962%);stop-opacity:1;"/>
</linearGradient>
<linearGradient id="linear7" gradientUnits="userSpaceOnUse" x1="17" y1="9.866" x2="17" y2="23.204" gradientTransform="matrix(0.999999,0,0,0.999999,0,0)">
<stop offset="0" style="stop-color:rgb(94.509804%,39.215687%,43.137255%);stop-opacity:1;"/>
<stop offset="0.443" style="stop-color:rgb(94.509804%,39.215687%,43.137255%);stop-opacity:1;"/>
<stop offset="1" style="stop-color:rgb(100%,29.411766%,34.901962%);stop-opacity:1;"/>
</linearGradient>
</defs>
<g id="surface79044412">
<path style=" stroke:none;fill-rule:nonzero;fill:rgb(30.588236%,66.666669%,90.196079%);fill-opacity:1;" d="M 41.191406 13.816406 C 42.285156 12.898438 43 11.539062 43 10 C 43 7.242188 40.757812 5 38 5 C 36.460938 5 35.101562 5.714844 34.183594 6.808594 C 31.199219 5.035156 27.722656 4 24 4 C 12.953125 4 4 12.953125 4 24 C 4 27.722656 5.035156 31.199219 6.808594 34.183594 C 5.714844 35.101562 5 36.460938 5 38 C 5 40.757812 7.242188 43 10 43 C 11.539062 43 12.898438 42.285156 13.816406 41.191406 C 16.800781 42.964844 20.277344 44 24 44 C 35.046875 44 44 35.046875 44 24 C 44 20.277344 42.964844 16.800781 41.191406 13.816406 Z M 10 41 C 8.347656 41 7 39.652344 7 38 C 7 37.15625 7.351562 36.394531 7.914062 35.851562 C 9.109375 37.464844 10.535156 38.890625 12.148438 40.085938 C 11.605469 40.648438 10.84375 41 10 41 Z M 38 7 C 39.652344 7 41 8.347656 41 10 C 41 10.84375 40.648438 11.605469 40.085938 12.148438 C 38.890625 10.535156 37.464844 9.109375 35.851562 7.914062 C 36.394531 7.351562 37.15625 7 38 7 Z M 38 7 "/>
<use xlink:href="#image79044416" mask="url(#mask0)"/>
<use xlink:href="#image79044419" mask="url(#mask1)"/>
<path style=" stroke:none;fill-rule:nonzero;fill:rgb(100%,85.09804%,15.686275%);fill-opacity:1;" d="M 42 24 C 42 33.941406 33.941406 42 24 42 C 14.058594 42 6 33.941406 6 24 C 6 14.058594 14.058594 6 24 6 C 33.941406 6 42 14.058594 42 24 Z M 42 24 "/>
<path style=" stroke:none;fill-rule:nonzero;fill:url(#linear0);" d="M 31.023438 15.230469 C 29.824219 14.953125 28.722656 16.316406 28.0625 19.164062 C 27.40625 22.015625 29 24 29 24 C 29 24 31.304688 22.914062 31.960938 20.066406 C 32.617188 17.214844 32.222656 15.507812 31.023438 15.230469 Z M 31.023438 15.230469 "/>
<path style=" stroke:none;fill-rule:nonzero;fill:url(#linear1);" d="M 26 18 C 26 21.898438 29 24 29 24 L 29 12 C 29 12 26 14.101562 26 18 Z M 26 18 "/>
<path style=" stroke:none;fill-rule:nonzero;fill:url(#linear2);" d="M 34.261719 13.214844 L 29 24 C 29 24 32.617188 23.429688 34.328125 19.921875 C 36.035156 16.414062 34.261719 13.214844 34.261719 13.214844 Z M 34.261719 13.214844 "/>
<path style=" stroke:none;fill-rule:nonzero;fill:url(#linear3);" d="M 13.304688 30.054688 C 13.957031 31.097656 15.699219 30.914062 18.179688 29.363281 C 20.660156 27.8125 20.9375 25.28125 20.9375 25.28125 C 20.9375 25.28125 18.539062 24.421875 16.058594 25.972656 C 13.578125 27.523438 12.652344 29.007812 13.304688 30.054688 Z M 13.304688 30.054688 "/>
<path style=" stroke:none;fill-rule:nonzero;fill:url(#linear4);" d="M 20.9375 25.285156 L 12.453125 33.769531 C 12.453125 33.769531 16.058594 34.40625 18.816406 31.648438 C 21.574219 28.890625 20.9375 25.285156 20.9375 25.285156 Z M 20.9375 25.285156 "/>
<path style=" stroke:none;fill-rule:nonzero;fill:url(#linear5);" d="M 14.285156 24.402344 C 10.597656 25.671875 9.589844 29.191406 9.589844 29.191406 L 20.9375 25.285156 C 20.9375 25.285156 17.972656 23.132812 14.285156 24.402344 Z M 14.285156 24.402344 "/>
<path style=" stroke:none;fill-rule:nonzero;fill:url(#linear6);" d="M 33.746094 34.75 C 32.660156 33.824219 31.636719 32.835938 30.628906 31.832031 L 30.375 31.582031 C 30.339844 31.550781 30.300781 31.527344 30.265625 31.5 C 30.1875 31.453125 30.097656 31.417969 30.007812 31.402344 C 29.824219 31.359375 29.628906 31.375 29.449219 31.46875 C 29.074219 31.625 28.832031 32.101562 28.921875 32.628906 C 28.898438 32.652344 29.011719 32.910156 29.0625 33.054688 L 29.246094 33.5625 L 29.582031 34.601562 C 29.785156 35.304688 29.96875 36.019531 30.078125 36.773438 C 30.164062 37.355469 29.773438 37.902344 29.199219 37.988281 C 28.875 38.039062 28.558594 37.925781 28.335938 37.714844 C 27.785156 37.199219 27.3125 36.640625 26.859375 36.074219 L 26.203125 35.207031 L 25.898438 34.765625 C 25.785156 34.589844 25.71875 34.535156 25.558594 34.230469 C 25.007812 33.199219 24.84375 31.914062 25.160156 30.746094 C 25.457031 29.578125 26.199219 28.5 27.214844 27.828125 C 28.226562 27.152344 29.496094 26.867188 30.703125 27.058594 C 31.308594 27.15625 31.894531 27.367188 32.425781 27.679688 C 32.691406 27.839844 32.941406 28.019531 33.175781 28.21875 L 33.496094 28.523438 L 33.679688 28.714844 C 34.664062 29.746094 35.628906 30.792969 36.535156 31.898438 C 37.238281 32.753906 37.128906 34.03125 36.289062 34.75 C 35.542969 35.390625 34.46875 35.367188 33.746094 34.75 Z M 33.746094 34.75 "/>
<path style=" stroke:none;fill-rule:nonzero;fill:url(#linear7);" d="M 17.875 20.164062 C 17.75 18.734375 17.710938 17.304688 17.691406 15.871094 L 17.683594 15.511719 C 17.679688 15.464844 17.671875 15.421875 17.664062 15.375 C 17.640625 15.285156 17.601562 15.199219 17.550781 15.121094 C 17.449219 14.960938 17.300781 14.828125 17.113281 14.769531 C 16.738281 14.609375 16.238281 14.769531 15.9375 15.203125 C 15.902344 15.207031 15.808594 15.46875 15.742188 15.605469 L 15.523438 16.097656 L 15.039062 17.066406 C 14.699219 17.710938 14.335938 18.34375 13.890625 18.953125 C 13.550781 19.425781 12.894531 19.523438 12.433594 19.175781 C 12.167969 18.976562 12.023438 18.671875 12.011719 18.363281 C 11.980469 17.605469 12.03125 16.875 12.101562 16.148438 L 12.238281 15.070312 L 12.328125 14.535156 C 12.371094 14.335938 12.363281 14.246094 12.457031 13.917969 C 12.78125 12.796875 13.554688 11.773438 14.585938 11.179688 C 15.601562 10.574219 16.871094 10.347656 18.050781 10.605469 C 19.230469 10.855469 20.324219 11.570312 21.042969 12.570312 C 21.398438 13.074219 21.667969 13.640625 21.828125 14.242188 C 21.90625 14.546875 21.960938 14.851562 21.984375 15.164062 L 22 15.605469 L 21.996094 15.875 C 21.976562 17.304688 21.9375 18.734375 21.8125 20.164062 C 21.714844 21.273438 20.757812 22.089844 19.667969 21.992188 C 18.699219 21.90625 17.953125 21.117188 17.875 20.164062 Z M 17.875 20.164062 "/>
</g>
</svg>

<svg xmlns="http://www.w3.org/2000/svg"  viewBox="0 0 48 48" width="48px" height="48px"><linearGradient id="Ypx2SDVA6Nq5f67v_52bPa" x1="5.618" x2="48.429" y1="5.618" y2="48.429" gradientUnits="userSpaceOnUse"><stop offset="0" stop-color="#2aa4f4"/><stop offset="1" stop-color="#007ad9"/></linearGradient><path fill="url(#Ypx2SDVA6Nq5f67v_52bPa)" d="M41.191,13.817C42.287,12.899,43,11.538,43,10c0-2.757-2.243-5-5-5	c-1.538,0-2.899,0.713-3.817,1.809C31.198,5.036,27.724,4,24,4C12.954,4,4,12.954,4,24c0,3.724,1.036,7.198,2.809,10.183	C5.713,35.101,5,36.462,5,38c0,2.757,2.243,5,5,5c1.538,0,2.899-0.713,3.817-1.809C16.802,42.964,20.276,44,24,44	c11.046,0,20-8.954,20-20C44,20.276,42.964,16.802,41.191,13.817z M10,41c-1.654,0-3-1.346-3-3c0-0.844,0.353-1.604,0.915-2.15	c1.193,1.616,2.619,3.042,4.235,4.235C11.604,40.647,10.844,41,10,41z M38,7c1.654,0,3,1.346,3,3c0,0.844-0.353,1.604-0.915,2.15	c-1.193-1.616-2.619-3.042-4.235-4.235C36.396,7.353,37.156,7,38,7z"/><path d="M24,6c9.941,0,18,8.059,18,18s-8.059,18-18,18S6,33.941,6,24S14.059,6,24,6 M24,5C13.523,5,5,13.523,5,24s8.523,19,19,19 s19-8.523,19-19S34.477,5,24,5L24,5z" opacity=".05"/><path d="M24,6c9.941,0,18,8.059,18,18s-8.059,18-18,18S6,33.941,6,24S14.059,6,24,6 M24,5.5C13.799,5.5,5.5,13.799,5.5,24 S13.799,42.5,24,42.5S42.5,34.201,42.5,24S34.201,5.5,24,5.5L24,5.5z" opacity=".07"/><linearGradient id="Ypx2SDVA6Nq5f67v_52bPb" x1="14.044" x2="44.309" y1="14.044" y2="44.309" gradientUnits="userSpaceOnUse"><stop offset="0" stop-color="#fed100"/><stop offset="1" stop-color="#e38101"/></linearGradient><circle cx="24" cy="24" r="18" fill="url(#Ypx2SDVA6Nq5f67v_52bPb)"/><linearGradient id="Ypx2SDVA6Nq5f67v_52bPc" x1="31.35" x2="29.527" y1="15.381" y2="21.087" gradientUnits="userSpaceOnUse"><stop offset="0" stop-color="#f44f5a"/><stop offset=".443" stop-color="#ee3d4a"/><stop offset="1" stop-color="#e52030"/></linearGradient><path fill="url(#Ypx2SDVA6Nq5f67v_52bPc)" d="M31.025,15.231c-1.2-0.277-2.303,1.085-2.961,3.935S29,24,29,24s2.303-1.085,2.961-3.935	S32.224,15.508,31.025,15.231z"/><linearGradient id="Ypx2SDVA6Nq5f67v_52bPd" x1="27.5" x2="27.5" y1="13.529" y2="25.635" gradientUnits="userSpaceOnUse"><stop offset="0" stop-color="#a34f27"/><stop offset=".587" stop-color="#8b3817"/><stop offset="1" stop-color="#802d10"/></linearGradient><path fill="url(#Ypx2SDVA6Nq5f67v_52bPd)" d="M26,18c0,3.9,3,6,3,6V12C29,12,26,14.1,26,18z"/><linearGradient id="Ypx2SDVA6Nq5f67v_52bPe" x1="35.173" x2="30.702" y1="14.665" y2="23.959" gradientUnits="userSpaceOnUse"><stop offset="0" stop-color="#a34f27"/><stop offset=".587" stop-color="#8b3817"/><stop offset="1" stop-color="#802d10"/></linearGradient><path fill="url(#Ypx2SDVA6Nq5f67v_52bPe)" d="M34.26,13.214L29,24c0,0,3.617-0.572,5.327-4.078S34.26,13.214,34.26,13.214z"/><linearGradient id="Ypx2SDVA6Nq5f67v_52bPf" x1="12.663" x2="19.252" y1="30.955" y2="26.072" gradientUnits="userSpaceOnUse"><stop offset="0" stop-color="#f44f5a"/><stop offset=".443" stop-color="#ee3d4a"/><stop offset="1" stop-color="#e52030"/></linearGradient><path fill="url(#Ypx2SDVA6Nq5f67v_52bPf)" d="M13.304,30.053c0.652,1.044,2.395,0.861,4.876-0.689s2.756-4.081,2.756-4.081	s-2.396-0.861-4.876,0.689C13.58,27.522,12.652,29.009,13.304,30.053z"/><linearGradient id="Ypx2SDVA6Nq5f67v_52bPg" x1="12.668" x2="22.373" y1="35.801" y2="25.683" gradientUnits="userSpaceOnUse"><stop offset="0" stop-color="#a34f27"/><stop offset=".587" stop-color="#8b3817"/><stop offset="1" stop-color="#802d10"/></linearGradient><path fill="url(#Ypx2SDVA6Nq5f67v_52bPg)" d="M20.937,25.284l-8.485,8.485c0,0,3.606,0.636,6.364-2.121	C21.573,28.89,20.937,25.284,20.937,25.284z"/><linearGradient id="Ypx2SDVA6Nq5f67v_52bPh" x1="7.72" x2="21.543" y1="28.545" y2="23.369" gradientUnits="userSpaceOnUse"><stop offset="0" stop-color="#a34f27"/><stop offset=".587" stop-color="#8b3817"/><stop offset="1" stop-color="#802d10"/></linearGradient><path fill="url(#Ypx2SDVA6Nq5f67v_52bPh)" d="M14.287,24.401c-3.688,1.27-4.696,4.79-4.696,4.79l11.346-3.907	C20.937,25.284,17.974,23.131,14.287,24.401z"/><linearGradient id="Ypx2SDVA6Nq5f67v_52bPi" x1="31" x2="31" y1="25.69" y2="39.99" gradientUnits="userSpaceOnUse"><stop offset="0" stop-color="#f44f5a"/><stop offset=".443" stop-color="#ee3d4a"/><stop offset="1" stop-color="#e52030"/></linearGradient><path fill="url(#Ypx2SDVA6Nq5f67v_52bPi)" d="M33.745,34.75c-1.083-0.927-2.108-1.913-3.115-2.917l-0.256-0.251	c-0.035-0.03-0.072-0.056-0.11-0.083c-0.078-0.047-0.165-0.08-0.257-0.096c-0.183-0.044-0.379-0.029-0.557,0.064	c-0.374,0.159-0.619,0.633-0.53,1.162c-0.021,0.025,0.092,0.281,0.141,0.425l0.187,0.509l0.333,1.04	c0.204,0.703,0.388,1.417,0.499,2.17c0.086,0.584-0.308,1.128-0.88,1.215c-0.324,0.05-0.64-0.062-0.865-0.272	c-0.548-0.517-1.023-1.074-1.477-1.641l-0.655-0.866l-0.306-0.444c-0.112-0.175-0.177-0.23-0.34-0.534	c-0.55-1.032-0.714-2.316-0.397-3.484c0.298-1.169,1.041-2.247,2.054-2.919c1.012-0.676,2.284-0.961,3.49-0.77	c0.603,0.099,1.19,0.309,1.722,0.622c0.264,0.159,0.516,0.339,0.75,0.54l0.321,0.302l0.183,0.194	c0.983,1.029,1.949,2.076,2.856,3.182c0.703,0.857,0.593,2.134-0.246,2.852C35.543,35.39,34.468,35.369,33.745,34.75z"/><linearGradient id="Ypx2SDVA6Nq5f67v_52bPj" x1="17" x2="17" y1="9.866" y2="23.204" gradientUnits="userSpaceOnUse"><stop offset="0" stop-color="#f44f5a"/><stop offset=".443" stop-color="#ee3d4a"/><stop offset="1" stop-color="#e52030"/></linearGradient><path fill="url(#Ypx2SDVA6Nq5f67v_52bPj)" d="M17.874,20.163c-0.124-1.43-0.165-2.86-0.183-4.29l-0.007-0.361	c-0.004-0.047-0.012-0.092-0.02-0.137c-0.022-0.089-0.061-0.175-0.115-0.252c-0.098-0.162-0.247-0.293-0.437-0.355	c-0.373-0.157-0.874,0.001-1.176,0.437c-0.032,0.003-0.129,0.264-0.194,0.4l-0.219,0.492l-0.484,0.971	c-0.341,0.641-0.705,1.275-1.147,1.885c-0.343,0.472-0.996,0.572-1.46,0.223c-0.263-0.198-0.409-0.504-0.422-0.812	c-0.03-0.757,0.02-1.49,0.092-2.215l0.136-1.079l0.091-0.533c0.042-0.203,0.034-0.289,0.129-0.62	c0.325-1.121,1.096-2.142,2.126-2.736c1.018-0.608,2.286-0.832,3.465-0.577c1.181,0.251,2.275,0.965,2.994,1.966	c0.357,0.503,0.626,1.072,0.785,1.674c0.077,0.302,0.131,0.609,0.157,0.919L22,15.606l-0.005,0.268	c-0.018,1.43-0.059,2.86-0.183,4.29c-0.096,1.108-1.056,1.926-2.143,1.829C18.699,21.905,17.955,21.118,17.874,20.163z"/></svg>
